webroot/img/weather/rain.svg

<?xml version="1.0" encoding="utf-8"?>
<!-- Generator: Adobe Illustrator 19.1.0, SVG Export Plug-In . SVG Version: 6.00 Build 0)  -->
<svg version="1.1" id="Layer_1" xmlns="http://www.w3.org/2000/svg" xmlns:xlink="http://www.w3.org/1999/xlink" x="0px" y="0px"
	 viewBox="0 0 64 64" enable-background="new 0 0 64 64" xml:space="preserve">
<g id="Rain">
	<path d="M53.971714,18.4018993c-0.2325134,0-0.4649162,0.0078011-0.6963158,0.0234013
		C52.6317978,8.6527996,44.4458008,0.8813,34.5278015,0.8813c-8.6748009,0-16.1479015,5.9014001-18.2240887,14.2021999
		c-1.3472128-0.5067997-2.7661123-0.7636995-4.2349119-0.7636995c-6.6547003,0-12.0688,5.4140997-12.0688,12.0684004
		c0,6.6552982,5.4140997,12.0692997,12.0688,12.0692997H53.971714C59.5014992,38.4575005,64,33.9584999,64,28.4291992
		S59.5014992,18.4018993,53.971714,18.4018993z M53.971714,36.4575005H12.0688009
		c-5.5517001,0-10.0688-4.5165997-10.0688-10.0692997c0-5.5518017,4.5171003-10.0684013,10.0688-10.0684013
		c1.5859995,0,3.1015997,0.3574009,4.5053988,1.0635014c0.2827015,0.1425991,0.6142998,0.1425991,0.8959999,0.0009995
		c0.2821999-0.1406002,0.4810009-0.4062996,0.5370998-0.7168007C19.451601,8.6792002,26.3994007,2.8813,34.5278015,2.8813
		c9.1987991,0,16.7294998,7.4814997,16.7880974,16.6788006c0.0019989,0.2959003,0.1348114,0.5751991,0.3633003,0.7635994
		c0.2280006,0.1895008,0.528801,0.2646999,0.8188019,0.2129002c0.4819984-0.0897999,0.9776001-0.1347008,1.4737129-0.1347008
		c4.4266853,0,8.028286,3.6005001,8.028286,8.0272999S58.3983994,36.4575005,53.971714,36.4575005z"/>
	<path d="M20.3535004,42.8246994c-0.5175991-0.1903992-1.0923004,0.0811005-1.279789,0.6016006l-2.2778111,6.3193016
		c-0.1870003,0.5194969,0.0820007,1.0928001,0.6019993,1.2792969c0.1119003,0.0410004,0.2261009,0.0596008,0.3389015,0.0596008
		c0.4096985,0,0.793911-0.2529984,0.9409103-0.6611977l2.2778893-6.3193016
		C21.142601,43.5844994,20.8735008,43.0112,20.3535004,42.8246994z"/>
	<path d="M24.028801,54.8588982c-0.517601-0.1894989-1.0923004,0.0810013-1.2798004,0.6015015l-2.2777996,6.3194008
		c-0.1870003,0.5195007,0.0819988,1.0928001,0.6019993,1.2793007c0.1117992,0.0410004,0.2261009,0.059597,0.3388996,0.059597
		c0.4097004,0,0.7938995-0.2529984,0.9409008-0.6611977l2.2777996-6.3193016
		C24.8178997,55.6186981,24.5487995,55.0453987,24.028801,54.8588982z"/>
	<path d="M33.2373009,42.8246994c-0.518589-0.1903992-1.0923004,0.0811005-1.2798004,0.6016006l-2.2777882,6.3193016
		c-0.1870003,0.5194969,0.0820007,1.0928001,0.6019993,1.2792969c0.1117878,0.0410004,0.2260876,0.0596008,0.3388882,0.0596008
		c0.4097004,0,0.7938995-0.2529984,0.9409008-0.6611977l2.2777977-6.3193016
		C34.0264015,43.5844994,33.7573013,43.0112,33.2373009,42.8246994z"/>
	<path d="M36.9126015,54.8588982c-0.5186005-0.1894989-1.0923004,0.0810013-1.2798004,0.6015015l-2.2778015,6.3194008
		c-0.1870003,0.5195007,0.0820007,1.0928001,0.6020012,1.2793007c0.1117973,0.0410004,0.2261009,0.059597,0.3388977,0.059597
		c0.4097023,0,0.7939034-0.2529984,0.9409027-0.6611977l2.2777977-6.3193016
		C37.7015991,55.6186981,37.4325981,55.0453987,36.9126015,54.8588982z"/>
	<path d="M46.1216011,42.8246994c-0.517601-0.1903992-1.0923004,0.0811005-1.2798004,0.6016006l-2.2778015,6.3193016
		c-0.1870995,0.5194969,0.0820007,1.0928001,0.6020012,1.2792969c0.1118011,0.0410004,0.2261009,0.0596008,0.3388977,0.0596008
		c0.4096031,0,0.7939034-0.2529984,0.9409027-0.6611977l2.2777977-6.3193016
		C46.9105988,43.5844994,46.6415977,43.0112,46.1216011,42.8246994z"/>
</g>
<g>
</g>
<g>
</g>
<g>
</g>
<g>
</g>
<g>
</g>
<g>
</g>
<g>
</g>
<g>
</g>
<g>
</g>
<g>
</g>
<g>
</g>
<g>
</g>
<g>
</g>
<g>
</g>
<g>
</g>
</svg>

<?xml version="1.0" encoding="UTF-8" standalone="no"?>
<!-- Generator: Adobe Illustrator 19.1.0, SVG Export Plug-In . SVG Version: 6.00 Build 0)  -->

<svg
   xmlns:dc="http://purl.org/dc/elements/1.1/"
   xmlns:cc="http://creativecommons.org/ns#"
   xmlns:rdf="http://www.w3.org/1999/02/22-rdf-syntax-ns#"
   xmlns:svg="http://www.w3.org/2000/svg"
   xmlns="http://www.w3.org/2000/svg"
   xmlns:sodipodi="http://sodipodi.sourceforge.net/DTD/sodipodi-0.dtd"
   xmlns:inkscape="http://www.inkscape.org/namespaces/inkscape"
   version="1.1"
   id="Layer_1"
   x="0px"
   y="0px"
   viewBox="0 0 64 64"
   enable-background="new 0 0 64 64"
   xml:space="preserve"
   inkscape:version="0.48.5 r10040"
   width="100%"
   height="100%"
   sodipodi:docname="night.svg"><metadata
     id="metadata3129"><rdf:RDF><cc:Work
         rdf:about=""><dc:format>image/svg+xml</dc:format><dc:type
           rdf:resource="http://purl.org/dc/dcmitype/StillImage" /><dc:title></dc:title></cc:Work></rdf:RDF></metadata><defs
     id="defs3127" /><sodipodi:namedview
     pagecolor="#ffffff"
     bordercolor="#666666"
     borderopacity="1"
     objecttolerance="10"
     gridtolerance="10"
     guidetolerance="10"
     inkscape:pageopacity="0"
     inkscape:pageshadow="2"
     inkscape:window-width="1920"
     inkscape:window-height="1030"
     id="namedview3125"
     showgrid="false"
     inkscape:zoom="13.203125"
     inkscape:cx="32"
     inkscape:cy="32"
     inkscape:window-x="0"
     inkscape:window-y="0"
     inkscape:window-maximized="1"
     inkscape:current-layer="Layer_1" /><g
     id="g3095" /><g
     id="g3097" /><g
     id="g3099" /><g
     id="g3101" /><g
     id="g3103" /><g
     id="g3105" /><g
     id="g3107" /><g
     id="g3109" /><g
     id="g3111" /><g
     id="g3113" /><g
     id="g3115" /><g
     id="g3117" /><g
     id="g3119" /><g
     id="g3121" /><g
     id="g3123" /><g
     id="g3971"
     transform="matrix(0.9739645,0,0,0.98539663,0.68875661,1.0661235)"
     style="fill:#ffffff"><g
       id="Rain"
       style="fill:#ffffff"><path
         id="path3923"
         d="m 53.971714,18.401899 c -0.232513,0 -0.464916,0.0078 -0.696316,0.0234 C 52.631798,8.6527996 44.445801,0.8813 34.527802,0.8813 25.853001,0.8813 18.3799,6.7827001 16.303713,15.0835 14.9565,14.5767 13.537601,14.3198 12.068801,14.3198 5.4141006,14.3198 9e-7,19.7339 9e-7,26.388201 c 0,6.655298 5.4140997,12.0693 12.0688001,12.0693 H 53.971714 C 59.501499,38.457501 64,33.9585 64,28.429199 c 0,-5.529301 -4.498501,-10.0273 -10.028286,-10.0273 z m 0,18.055602 H 12.068801 c -5.5517002,0 -10.0688001,-4.5166 -10.0688001,-10.0693 0,-5.551802 4.5171003,-10.068401 10.0688001,-10.068401 1.585999,0 3.1016,0.3574 4.505399,1.063501 0.282701,0.142599 0.6143,0.142599 0.896,9.99e-4 0.282199,-0.1406 0.481001,-0.406299 0.537099,-0.7168 1.444302,-7.9882998 8.392102,-13.7862 16.520503,-13.7862 9.198799,0 16.729499,7.4815 16.788097,16.678801 0.002,0.2959 0.134811,0.575199 0.3633,0.763599 0.228001,0.189501 0.528801,0.2647 0.818802,0.2129 0.481999,-0.0898 0.9776,-0.134701 1.473713,-0.134701 4.426685,0 8.028286,3.6005 8.028286,8.0273 0,4.4268 -3.601601,8.028302 -8.028286,8.028302 z"
         inkscape:connector-curvature="0"
         style="fill:#ffffff" /><path
         id="path3925"
         d="M 20.3535,42.824699 C 19.835901,42.6343 19.2612,42.9058 19.073711,43.4263 L 16.7959,49.745602 c -0.187,0.519496 0.082,1.0928 0.602,1.279296 0.1119,0.041 0.2261,0.0596 0.338901,0.0596 0.409699,0 0.793911,-0.252998 0.94091,-0.661197 L 20.955601,44.104 c 0.187,-0.519501 -0.0821,-1.0928 -0.602101,-1.279301 z"
         inkscape:connector-curvature="0"
         style="fill:#ffffff" /><path
         id="path3927"
         d="m 24.028801,54.858898 c -0.517601,-0.189499 -1.0923,0.081 -1.2798,0.601502 l -2.2778,6.3194 c -0.187,0.519501 0.082,1.092801 0.601999,1.279301 0.111799,0.041 0.226101,0.0596 0.3389,0.0596 0.4097,0 0.793899,-0.252998 0.940901,-0.661198 L 24.6308,56.138199 c 0.1871,-0.519501 -0.082,-1.0928 -0.601999,-1.279301 z"
         inkscape:connector-curvature="0"
         style="fill:#ffffff" /><path
         id="path3929"
         d="m 33.237301,42.824699 c -0.518589,-0.190399 -1.0923,0.0811 -1.2798,0.601601 l -2.277789,6.319302 c -0.187,0.519496 0.082,1.0928 0.602,1.279296 0.111787,0.041 0.226087,0.0596 0.338888,0.0596 0.4097,0 0.793899,-0.252998 0.940901,-0.661197 L 33.839298,44.104 c 0.187103,-0.519501 -0.082,-1.0928 -0.601997,-1.279301 z"
         inkscape:connector-curvature="0"
         style="fill:#ffffff" /><path
         id="path3931"
         d="m 36.912601,54.858898 c -0.5186,-0.189499 -1.0923,0.081 -1.2798,0.601502 L 33.355,61.7798 c -0.187001,0.519501 0.082,1.092801 0.602001,1.279301 0.111797,0.041 0.226101,0.0596 0.338897,0.0596 0.409703,0 0.793904,-0.252998 0.940903,-0.661198 l 2.277798,-6.319301 c 0.187,-0.519501 -0.082,-1.0928 -0.601998,-1.279301 z"
         inkscape:connector-curvature="0"
         style="fill:#ffffff" /><path
         id="path3933"
         d="M 46.121601,42.824699 C 45.604,42.6343 45.029301,42.9058 44.841801,43.4263 l -2.277802,6.319302 c -0.187099,0.519496 0.082,1.0928 0.602001,1.279296 0.111801,0.041 0.226101,0.0596 0.338898,0.0596 0.409603,0 0.793903,-0.252998 0.940903,-0.661197 L 46.723598,44.104 c 0.187001,-0.519501 -0.082,-1.0928 -0.601997,-1.279301 z"
         inkscape:connector-curvature="0"
         style="fill:#ffffff" /></g><g
       id="g3935"
       style="fill:#ffffff" /><g
       id="g3937"
       style="fill:#ffffff" /><g
       id="g3939"
       style="fill:#ffffff" /><g
       id="g3941"
       style="fill:#ffffff" /><g
       id="g3943"
       style="fill:#ffffff" /><g
       id="g3945"
       style="fill:#ffffff" /><g
       id="g3947"
       style="fill:#ffffff" /><g
       id="g3949"
       style="fill:#ffffff" /><g
       id="g3951"
       style="fill:#ffffff" /><g
       id="g3953"
       style="fill:#ffffff" /><g
       id="g3955"
       style="fill:#ffffff" /><g
       id="g3957"
       style="fill:#ffffff" /><g
       id="g3959"
       style="fill:#ffffff" /><g
       id="g3961"
       style="fill:#ffffff" /><g
       id="g3963"
       style="fill:#ffffff" /></g></svg>
